Numix-GalliumOS/24/status/nm-vpn-lock.svg

<?xml version="1.0" encoding="UTF-8" standalone="no"?>
<svg
   xmlns:dc="http://purl.org/dc/elements/1.1/"
   xmlns:cc="http://creativecommons.org/ns#"
   xmlns:rdf="http://www.w3.org/1999/02/22-rdf-syntax-ns#"
   xmlns:svg="http://www.w3.org/2000/svg"
   xmlns="http://www.w3.org/2000/svg"
   xmlns:sodipodi="http://sodipodi.sourceforge.net/DTD/sodipodi-0.dtd"
   xmlns:inkscape="http://www.inkscape.org/namespaces/inkscape"
   width="24"
   height="24"
   viewBox="0 0 24 24"
   id="svg3053"
   version="1.1"
   inkscape:version="0.91 r"
   sodipodi:docname="nm-vpn-lock.svg">
  <metadata
     id="metadata3063">
    <rdf:RDF>
      <cc:Work
         rdf:about="">
        <dc:format>image/svg+xml</dc:format>
        <dc:type
           rdf:resource="http://purl.org/dc/dcmitype/StillImage" />
      </cc:Work>
    </rdf:RDF>
  </metadata>
  <defs
     id="defs3061" />
  <sodipodi:namedview
     pagecolor="#ffffff"
     bordercolor="#666666"
     borderopacity="1"
     objecttolerance="10"
     gridtolerance="10"
     guidetolerance="10"
     inkscape:pageopacity="0"
     inkscape:pageshadow="2"
     inkscape:window-width="1280"
     inkscape:window-height="998"
     id="namedview3059"
     showgrid="false"
     inkscape:zoom="19.666667"
     inkscape:cx="15.814755"
     inkscape:cy="5.8946915"
     inkscape:window-x="0"
     inkscape:window-y="0"
     inkscape:window-maximized="1"
     inkscape:current-layer="svg3053" />
  <path
     style="fill:#ececec;fill-opacity:1"
     d="M 20.726562 14.183594 C 19.519531 14.183594 18.546875 15.175781 18.546875 16.398438 L 18.546875 17.453125 C 17.941406 17.453125 17.453125 17.941406 17.453125 18.546875 L 17.453125 21.816406 C 17.453125 22.421875 17.941406 22.910156 18.546875 22.910156 L 22.910156 22.910156 C 23.511719 22.910156 24 22.421875 24 21.816406 L 24 18.546875 C 24 17.941406 23.511719 17.453125 22.910156 17.453125 L 22.910156 16.398438 C 22.910156 15.175781 21.9375 14.183594 20.726562 14.183594 Z M 20.726562 15.273438 C 21.332031 15.273438 21.816406 15.753906 21.816406 16.363281 L 21.816406 17.453125 L 19.636719 17.453125 L 19.636719 16.363281 C 19.636719 15.753906 20.121094 15.273438 20.726562 15.273438 Z "
     id="path3057" />
</svg>

<svg xmlns="http://www.w3.org/2000/svg" viewBox="0 0 24 24">
 <path d="m 20.727 14.184 c -1.207 0 -2.18 0.992 -2.18 2.215 l 0 1.055 c -0.605 0 -1.094 0.488 -1.094 1.094 l 0 3.27 c 0 0.605 0.488 1.094 1.094 1.094 l 4.363 0 c 0.602 0 1.09 -0.488 1.09 -1.094 l 0 -3.27 c 0 -0.605 -0.488 -1.094 -1.09 -1.094 l 0 -1.055 c 0 -1.223 -0.973 -2.215 -2.184 -2.215 m 0 1.09 c 0.605 0 1.09 0.48 1.09 1.09 l 0 1.09 l -2.18 0 l 0 -1.09 c 0 -0.609 0.484 -1.09 1.09 -1.09 Z" style="fill:#ececec;fill-opacity:1"/>
</svg>
